X: 1
T: Her Golden Hair Was Curling Down
M: 4/4
L: 1/8
R: hornpipe
K: Dmaj
|: (3ABc | d>fe>d B>AF>A | d>fe>d B2 d>e | f>AA>f e>d (3Bcd | e2 e>d e2 (3ABc |
d2 f>d B>AF>A | d>fe>d B2 d>e | f>AA>f e>dB>c | (3ded d>c d2- :|
|: d>B | (3ABA d>e f>gf>e | d>cd>B A3 F | G>FG>A (3B=c^c d>B |e2 e>d e2 (3ABc |
d2 f>d B>AF>A | d>fe>d B2 d>e | f>AA>f e>dB>c | (3ded d>c d2- :|
